source/images/selectAll.svg

<svg width="18" height="18" xmlns="http://www.w3.org/2000/svg" version="1.1">
 <title>select-all</title>

 <desc>Created with Sketch.</desc>
 <g>
  <title>Layer 1</title>
  <g id="svg_1" fill-rule="evenodd" fill="none">
   <path id="svg_2" fill="#000000" d="m13,6l-8,0c-0.55,0 -1,-0.45 -1,-1c0,-0.55 0.45,-1 1,-1l8,0c0.55,0 1,0.45 1,1c0,0.55 -0.45,1 -1,1m0,4l-8,0c-0.55,0 -1,-0.45 -1,-1c0,-0.55 0.45,-1 1,-1l8,0c0.55,0 1,0.45 1,1c0,0.55 -0.45,1 -1,1m0,4l-8,0c-0.55,0 -1,-0.45 -1,-1c0,-0.55 0.45,-1 1,-1l8,0c0.55,0 1,0.45 1,1c0,0.55 -0.45,1 -1,1m3,-11c0,0.55 0.45,1 1,1c0.55,0 1,-0.45 1,-1l0,-0.5c0,-1.375 -1.125,-2.5 -2.5,-2.5l-0.5,0c-0.55,0 -1,0.45 -1,1c0,0.55 0.45,1 1,1c0,0 1.094,-0.094 1,1m-13,-1c0.55,0 1,-0.45 1,-1c0,-0.55 -0.45,-1 -1,-1l-0.5,0c-1.375,0 -2.5,1.125 -2.5,2.5l0,0.5c0,0.55 0.45,1 1,1c0.55,0 1,-0.45 1,-1c0,0 -0.094,-1.094 1,-1m-1,13c0,-0.55 -0.45,-1 -1,-1c-0.55,0 -1,0.45 -1,1l0,0.5c0,1.375 1.125,2.5 2.5,2.5l0.5,0c0.55,0 1,-0.45 1,-1c0,-0.55 -0.45,-1 -1,-1c0,0 -1.094,0.094 -1,-1m13,1c-0.55,0 -1,0.45 -1,1c0,0.55 0.45,1 1,1l0.5,0c1.375,0 2.5,-1.125 2.5,-2.5l0,-0.5c0,-0.55 -0.45,-1 -1,-1c-0.55,0 -1,0.45 -1,1c0,0 0.094,1.094 -1,1m2,-8c-0.55,0 -1,-0.45 -1,-1l0,-1c0,-0.55 0.45,-1 1,-1c0.55,0 1,0.45 1,1l0,1c0,0.55 -0.45,1 -1,1m0,5c-0.55,0 -1,-0.45 -1,-1l0,-1c0,-0.55 0.45,-1 1,-1c0.55,0 1,0.45 1,1l0,1c0,0.55 -0.45,1 -1,1m-7,-12c0,-0.55 0.45,-1 1,-1l1,0c0.55,0 1,0.45 1,1c0,0.55 -0.45,1 -1,1l-1,0c-0.55,0 -1,-0.45 -1,-1m-5,0c0,-0.55 0.45,-1 1,-1l1,0c0.55,0 1,0.45 1,1c0,0.55 -0.45,1 -1,1l-1,0c-0.55,0 -1,-0.45 -1,-1m-4,9c0.55,0 1,0.45 1,1l0,1c0,0.55 -0.45,1 -1,1c-0.55,0 -1,-0.45 -1,-1l0,-1c0,-0.55 0.45,-1 1,-1m0,-5c0.55,0 1,0.45 1,1l0,1c0,0.55 -0.45,1 -1,1c-0.55,0 -1,-0.45 -1,-1l0,-1c0,-0.55 0.45,-1 1,-1m7,12c0,0.55 -0.45,1 -1,1l-1,0c-0.55,0 -1,-0.45 -1,-1c0,-0.55 0.45,-1 1,-1l1,0c0.55,0 1,0.45 1,1m5,0c0,0.55 -0.45,1 -1,1l-1,0c-0.55,0 -1,-0.45 -1,-1c0,-0.55 0.45,-1 1,-1l1,0c0.55,0 1,0.45 1,1"/>
  </g>
  <text id="svg_3" font-family="'Helvetica Neue', Helvetica, Arial-Unicode, Arial, Sans-serif" font-weight="bold" font-size="5px" fill="#000000" y="33" x="0">Created by Kevin White</text>
  <text id="svg_4" font-family="'Helvetica Neue', Helvetica, Arial-Unicode, Arial, Sans-serif" font-weight="bold" font-size="5px" fill="#000000" y="38" x="0">from the Noun Project</text>
 </g>
</svg>

<svg xmlns="http://www.w3.org/2000/svg" xmlns:xlink="http://www.w3.org/1999/xlink" viewBox="0 0 18 22.5" version="1.1" x="0px" y="0px"><title>select-all</title><desc>Created with Sketch.</desc><g stroke="none" stroke-width="1" fill="none" fill-rule="evenodd"><path d="M13,6 L5,6 C4.45,6 4,5.55 4,5 C4,4.45 4.45,4 5,4 L13,4 C13.55,4 14,4.45 14,5 C14,5.55 13.55,6 13,6 M13,10 L5,10 C4.45,10 4,9.55 4,9 C4,8.45 4.45,8 5,8 L13,8 C13.55,8 14,8.45 14,9 C14,9.55 13.55,10 13,10 M13,14 L5,14 C4.45,14 4,13.55 4,13 C4,12.45 4.45,12 5,12 L13,12 C13.55,12 14,12.45 14,13 C14,13.55 13.55,14 13,14 M16,3 C16,3.55 16.45,4 17,4 C17.55,4 18,3.55 18,3 L18,2.5 C18,1.125 16.875,0 15.5,0 L15,0 C14.45,0 14,0.45 14,1 C14,1.55 14.45,2 15,2 C15,2 16.094,1.906 16,3 M3,2 C3.55,2 4,1.55 4,1 C4,0.45 3.55,0 3,0 L2.5,0 C1.125,0 0,1.125 0,2.5 L0,3 C0,3.55 0.45,4 1,4 C1.55,4 2,3.55 2,3 C2,3 1.906,1.906 3,2 M2,15 C2,14.45 1.55,14 1,14 C0.45,14 0,14.45 0,15 L0,15.5 C0,16.875 1.125,18 2.5,18 L3,18 C3.55,18 4,17.55 4,17 C4,16.45 3.55,16 3,16 C3,16 1.906,16.094 2,15 M15,16 C14.45,16 14,16.45 14,17 C14,17.55 14.45,18 15,18 L15.5,18 C16.875,18 18,16.875 18,15.5 L18,15 C18,14.45 17.55,14 17,14 C16.45,14 16,14.45 16,15 C16,15 16.094,16.094 15,16 M17,8 C16.45,8 16,7.55 16,7 L16,6 C16,5.45 16.45,5 17,5 C17.55,5 18,5.45 18,6 L18,7 C18,7.55 17.55,8 17,8 M17,13 C16.45,13 16,12.55 16,12 L16,11 C16,10.45 16.45,10 17,10 C17.55,10 18,10.45 18,11 L18,12 C18,12.55 17.55,13 17,13 M10,1 C10,0.45 10.45,0 11,0 L12,0 C12.55,0 13,0.45 13,1 C13,1.55 12.55,2 12,2 L11,2 C10.45,2 10,1.55 10,1 M5,1 C5,0.45 5.45,0 6,0 L7,0 C7.55,0 8,0.45 8,1 C8,1.55 7.55,2 7,2 L6,2 C5.45,2 5,1.55 5,1 M1,10 C1.55,10 2,10.45 2,11 L2,12 C2,12.55 1.55,13 1,13 C0.45,13 0,12.55 0,12 L0,11 C0,10.45 0.45,10 1,10 M1,5 C1.55,5 2,5.45 2,6 L2,7 C2,7.55 1.55,8 1,8 C0.45,8 0,7.55 0,7 L0,6 C0,5.45 0.45,5 1,5 M8,17 C8,17.55 7.55,18 7,18 L6,18 C5.45,18 5,17.55 5,17 C5,16.45 5.45,16 6,16 L7,16 C7.55,16 8,16.45 8,17 M13,17 C13,17.55 12.55,18 12,18 L11,18 C10.45,18 10,17.55 10,17 C10,16.45 10.45,16 11,16 L12,16 C12.55,16 13,16.45 13,17" fill="#000000"/></g><text x="0" y="33" fill="#000000" font-size="5px" font-weight="bold" font-family="'Helvetica Neue', Helvetica, Arial-Unicode, Arial, Sans-serif">Created by Kevin White</text><text x="0" y="38" fill="#000000" font-size="5px" font-weight="bold" font-family="'Helvetica Neue', Helvetica, Arial-Unicode, Arial, Sans-serif">from the Noun Project</text></svg>
